build/category/TesterSolid.svg

<svg xmlns="http://www.w3.org/2000/svg" fill="none" viewBox="0 0 24 24" focusable="false"><path d="M0 0H24V24H0z"/><path fill="#74767B" fill-rule="evenodd" d="M19.5139 13.4283C19.7283 13.5369 20 13.39 20 13.1497L20 7C20 5.34315 18.6569 4 17 4L7 4C5.34315 4 4 5.34315 4 7L4 17C4 18.6569 5.34315 20 7 20L13.1497 20C13.39 20 13.5369 19.7283 13.4283 19.5139C13.1177 18.9002 12.9426 18.2062 12.9426 17.4713C12.9426 14.9702 14.9702 12.9426 17.4713 12.9426C18.2062 12.9426 18.9002 13.1177 19.5139 13.4283ZM16.0068 8.49009C16.0068 8.13111 15.7158 7.8401 15.3568 7.8401L8.67227 7.84009C8.31329 7.84009 8.02227 8.13111 8.02227 8.49009C8.02227 8.84908 8.31329 9.14009 8.67227 9.14009L15.3568 9.14009C15.7158 9.14009 16.0068 8.84908 16.0068 8.49009ZM12.0261 12C12.0261 11.641 11.7351 11.35 11.3761 11.35L8.67197 11.35C8.31299 11.35 8.02197 11.641 8.02197 12C8.02197 12.359 8.31299 12.65 8.67197 12.65L11.3761 12.65C11.7351 12.65 12.0261 12.359 12.0261 12ZM20.1674 19.2476L21.8043 20.8845C22.0582 21.1383 22.0582 21.5499 21.8044 21.8037C21.5505 22.0576 21.139 22.0576 20.8851 21.8037L19.2494 20.168C18.7393 20.5058 18.1277 20.7024 17.4701 20.7024C15.6878 20.7024 14.243 19.2576 14.243 17.4753C14.243 15.693 15.6878 14.2481 17.4701 14.2481C19.2524 14.2481 20.6973 15.693 20.6973 17.4753C20.6973 18.1299 20.5024 18.7389 20.1674 19.2476ZM15.543 17.4753C15.543 18.5396 16.4058 19.4024 17.4701 19.4024C18.5344 19.4024 19.3973 18.5396 19.3973 17.4753C19.3973 16.4109 18.5344 15.5481 17.4701 15.5481C16.4058 15.5481 15.543 16.4109 15.543 17.4753Z"/></svg>

<svg xmlns="http://www.w3.org/2000/svg" fill="none" viewBox="0 0 24 24" focusable="false"><path fill="#74767B" fill-rule="evenodd" d="M19.51 13.42c.21.11.49-.03.49-.28V7c0-1.66-1.35-3-3-3H7C5.34 4 4 5.34 4 7v10c0 1.65 1.34 3 3 3h6.14c.24 0 .39-.28.28-.49-.31-.61-.48-1.31-.48-2.04 0-2.5 2.03-4.53 4.53-4.53.73 0 1.43.17 2.04.48M16 8.49c0-.36-.29-.65-.65-.65H8.67c-.36 0-.65.29-.65.65 0 .35.29.65.65.65h6.68c.36 0 .65-.3.65-.65M12.02 12c0-.36-.29-.65-.65-.65h-2.7c-.36 0-.65.29-.65.65 0 .35.29.65.65.65h2.7c.36 0 .65-.3.65-.65m9.78 8.88-1.64-1.64c.34-.51.53-1.12.53-1.77 0-1.78-1.44-3.23-3.22-3.23-1.79 0-3.23 1.45-3.23 3.23s1.44 3.23 3.23 3.23c.65 0 1.26-.2 1.77-.54l1.64 1.64c.25.25.67.25.92 0 .25-.26.25-.67 0-.92m-4.33-1.48a1.931 1.931 0 0 1 0-3.86c1.06 0 1.92.87 1.92 1.93s-.86 1.93-1.92 1.93"/></svg>
